app/dist/common/images/cenntro-electric-group.svg

<svg height="18" viewBox="0 0 18 18" width="18" xmlns="http://www.w3.org/2000/svg"><path d="m0 0h18v18h-18z" fill="#f0f3fa"/><path d="m5 10.49c-.02 1.13.76 2.5 2.14 2.51h5.86v-1h-3.52c-.75 0-1.48-1.23-1.48-1.85v-2.2c0-.82.54-1.95 1.48-1.95h3.52v-1h-5.89c-1.63.02-2.11 1.74-2.11 2.95z" fill="#3261a4"/></svg>

<!-- by TradingView --><svg xmlns="http://www.w3.org/2000/svg" width="18" height="18" viewBox="0 0 18 18"><path fill="#F0F3FA" d="M0 0h18v18H0z"/><path d="M5 10.49c-.02 1.13.76 2.5 2.14 2.51H13v-1H9.48C8.73 12 8 10.77 8 10.15v-2.2C8 7.13 8.54 6 9.48 6H13V5H7.11C5.48 5.02 5 6.74 5 7.95v2.54z" fill="#3261A4"/></svg>
